X:1
T:Leffingwell, LM
T:Thoro Harris (1874-1955)
T:Leffingwell, LM
T:Public Domain
C:Thoro Harris (1874-1955)
Z:Public Domain
%%score ( 1 2 ) ( 3 4 )
L:1/8
M:3/4
K:F
V:1 treble 
V:2 treble 
V:3 bass 
V:4 bass 
V:1
 (FE) | (F2 E2) D2 | (D2 ^C2) ([CE][DF]) | [EG]2 [DF]2 [^CE]2 | D4 [^CA]2 | (d2 A2) (AG) | %6
 (F2 G2) [DA]2 | (B2 c2) [Dd]2 | [DA]4 ([DF][EG]) | [FA]2 [EG]2 [DF]2 | (F2 E2) ([=CE][DF]) | %11
 ([EG]2 [^CA]2) [CE]2 | [DF]4 (_FA) | [Dd]4 [_Ec]2 | (c2 B2) ([FA][EG]) | ([DF]2 [EG]2) [^CE]2 | %16
 D4 |] %17
V:2
 C2 | A,4 D2 | A4 x2 | x6 | D4 x2 | D4 ^C2 | D4 x2 | D4 x2 | x6 | x6 | ^C4 x2 | x6 | x4 E2 | x6 | %14
 D4 x2 | x6 | D4 |] %17
V:3
 (F,G,) | (A,2 G,2) [D,F,]2 | [A,,E,]4 [A,,A,]2 | [A,,A,]4 [A,,G,]2 | [D,F,]4 [E,G,]2 | %5
 [D,F,]4 [A,,E,]2 | [D,F,]4 [C,F,]2 | (B,,2 A,,2) [B,,F,]2 | [D,F,]4 (A,B,) | (D,3 E,) (F,G,) | %10
 A,4 A,2 | [A,,A,]4 [A,,G,]2 | (F,2 G,2) [C,A,]2 | (B,2 F,2) [A,,^F,]2 | [G,,G,]4 (F,G,) | %15
 [A,,A,]4 [A,,G,]2 | [D,F,]4 |] %17
V:4
 D,2 | D,4 x2 | x6 | x6 | x6 | x6 | x6 | F,4 x2 | x4 D,2 | A,4 A,2 | A,4 A,2 | x6 | D,4 x2 | %13
 B,,4 x2 | x4 B,,2 | x6 | x4 |] %17

